apps/www/public/images/realtime/example-apps/light/form-presence.svg

<svg width="361" height="210" viewBox="0 0 361 210" fill="none" xmlns="http://www.w3.org/2000/svg">
<g clip-path="url(#clip0_1125_17671)">
<rect x="45" y="22.5" width="270" height="193" rx="7.5" fill="white" stroke="#ECEEF0"/>
<path d="M66.736 44.064V42.492H59.692V44.064H62.38V51H64.048V44.064H66.736ZM69.2839 51V45.096H67.6879V51H69.2839ZM67.4959 43.164C67.4959 43.692 67.9399 44.136 68.4799 44.136C69.0319 44.136 69.4639 43.692 69.4639 43.164C69.4639 42.612 69.0319 42.168 68.4799 42.168C67.9399 42.168 67.4959 42.612 67.4959 43.164ZM72.9606 43.332H71.5206V44.16C71.5206 44.688 71.2326 45.096 70.6086 45.096H70.3086V46.512H71.3766V49.26C71.3766 50.4 72.0966 51.084 73.2486 51.084C73.7166 51.084 74.0046 51 74.1486 50.94V49.62C74.0646 49.644 73.8486 49.668 73.6566 49.668C73.2006 49.668 72.9606 49.5 72.9606 48.984V46.512H74.1486V45.096H72.9606V43.332ZM76.8074 51V42.312H75.2114V51H76.8074ZM79.6801 47.376C79.7161 46.836 80.1721 46.212 81.0001 46.212C81.9121 46.212 82.2961 46.788 82.3201 47.376H79.6801ZM82.4761 48.912C82.2841 49.44 81.8761 49.812 81.1321 49.812C80.3401 49.812 79.6801 49.248 79.6441 48.468H83.8681C83.8681 48.444 83.8921 48.204 83.8921 47.976C83.8921 46.08 82.8001 44.916 80.9761 44.916C79.4641 44.916 78.0721 46.14 78.0721 48.024C78.0721 50.016 79.5001 51.18 81.1201 51.18C82.5721 51.18 83.5081 50.328 83.8081 49.308L82.4761 48.912Z" fill="#202425"/>
<rect x="59.5" y="61" width="243" height="29" rx="5" fill="#D7DBDF"/>
<rect x="61" y="62.5" width="240" height="26" rx="3.5" fill="#ECEEF0" stroke="#D7DBDF"/>
<path d="M76.004 72.424C75.812 71.5 75.044 70.312 73.124 70.312C71.552 70.312 70.316 71.512 70.316 72.844C70.316 74.116 71.18 74.908 72.392 75.172L73.604 75.436C74.456 75.616 74.876 76.144 74.876 76.756C74.876 77.5 74.3 78.112 73.124 78.112C71.84 78.112 71.168 77.236 71.084 76.288L69.956 76.648C70.112 77.86 71.084 79.18 73.136 79.18C74.948 79.18 76.076 77.98 76.076 76.66C76.076 75.472 75.284 74.584 73.868 74.272L72.596 73.996C71.876 73.84 71.504 73.372 71.504 72.76C71.504 71.968 72.188 71.344 73.148 71.344C74.336 71.344 74.852 72.184 74.948 72.796L76.004 72.424ZM81.0726 78.304C81.0726 78.544 81.0966 78.868 81.1206 79H82.2006C82.1766 78.796 82.1406 78.388 82.1406 77.932V73.228H81.0126V76.708C81.0126 77.584 80.5566 78.184 79.6446 78.184C78.6966 78.184 78.3366 77.488 78.3366 76.696V73.228H77.2086V76.864C77.2086 78.172 78.0246 79.18 79.3686 79.18C80.0406 79.18 80.7606 78.904 81.0726 78.304ZM85.1815 81.28V78.22C85.4935 78.736 86.1655 79.156 87.0535 79.156C88.7455 79.156 89.7415 77.824 89.7415 76.108C89.7415 74.428 88.8175 73.096 87.0895 73.096C86.1535 73.096 85.4695 73.552 85.1575 74.128V73.228H84.0655V81.28H85.1815ZM88.5895 76.108C88.5895 77.296 87.9295 78.148 86.8855 78.148C85.8535 78.148 85.1695 77.296 85.1695 76.108C85.1695 74.956 85.8535 74.092 86.8855 74.092C87.9415 74.092 88.5895 74.956 88.5895 76.108ZM90.8188 77.452C90.8188 78.364 91.5748 79.18 92.7508 79.18C93.7828 79.18 94.3588 78.628 94.6108 78.22C94.6108 78.64 94.6468 78.856 94.6708 79H95.7748C95.7508 78.856 95.7028 78.556 95.7028 78.052V75.16C95.7028 74.032 95.0308 73.048 93.3027 73.048C92.0548 73.048 91.0588 73.816 90.9388 74.92L92.0188 75.172C92.0908 74.5 92.5348 74.008 93.3268 74.008C94.2028 74.008 94.5748 74.476 94.5748 75.04C94.5748 75.244 94.4788 75.424 94.1308 75.472L92.5708 75.7C91.5748 75.844 90.8188 76.42 90.8188 77.452ZM92.9068 78.232C92.3308 78.232 91.9708 77.824 91.9708 77.392C91.9708 76.876 92.3308 76.6 92.8108 76.528L94.5748 76.264V76.528C94.5748 77.788 93.8308 78.232 92.9068 78.232ZM98.972 71.404H97.94V72.34C97.94 72.844 97.676 73.228 97.052 73.228H96.74V74.248H97.844V77.416C97.844 78.46 98.468 79.06 99.452 79.06C99.836 79.06 100.124 78.988 100.22 78.952V77.992C100.124 78.016 99.92 78.04 99.776 78.04C99.188 78.04 98.972 77.776 98.972 77.248V74.248H100.22V73.228H98.972V71.404ZM102.842 79V73.228H101.726V79H102.842ZM101.474 71.044C101.474 71.488 101.834 71.848 102.278 71.848C102.734 71.848 103.094 71.488 103.094 71.044C103.094 70.588 102.734 70.228 102.278 70.228C101.834 70.228 101.474 70.588 101.474 71.044ZM106.273 71.404H105.241V72.34C105.241 72.844 104.977 73.228 104.353 73.228H104.041V74.248H105.145V77.416C105.145 78.46 105.769 79.06 106.753 79.06C107.137 79.06 107.425 78.988 107.521 78.952V77.992C107.425 78.016 107.221 78.04 107.077 78.04C106.489 78.04 106.273 77.776 106.273 77.248V74.248H107.521V73.228H106.273V71.404ZM110.154 79V70.312H109.026V79H110.154ZM112.805 75.52C112.853 74.776 113.429 74.044 114.377 74.044C115.397 74.044 115.937 74.692 115.961 75.52H112.805ZM116.129 77.02C115.913 77.668 115.445 78.184 114.509 78.184C113.537 78.184 112.793 77.464 112.769 76.432H117.113C117.125 76.36 117.137 76.216 117.137 76.072C117.137 74.272 116.141 73.048 114.365 73.048C112.913 73.048 111.605 74.284 111.605 76.096C111.605 78.052 112.961 79.18 114.509 79.18C115.853 79.18 116.777 78.376 117.101 77.356L116.129 77.02Z" fill="#202425"/>
<rect x="267.5" y="39" width="34" height="15" rx="2" fill="#D7DBDF"/>
<path d="M279.444 49.9375H280.504L277.684 42.8475H276.554L273.734 49.9375H274.784L275.534 47.9575H278.674L279.444 49.9375ZM277.094 43.8675L278.324 47.0475H275.884L277.094 43.8675ZM282.288 49.9375V47.0375C282.288 46.3175 282.738 45.8175 283.408 45.8175C284.128 45.8175 284.428 46.2975 284.428 46.9175V49.9375H285.368V47.0275C285.368 46.3375 285.818 45.8175 286.478 45.8175C287.188 45.8175 287.498 46.2875 287.498 46.9175V49.9375H288.428V46.8175C288.428 45.5575 287.608 44.9875 286.768 44.9875C286.158 44.9875 285.538 45.2075 285.158 45.8975C284.898 45.2775 284.318 44.9875 283.718 44.9875C283.158 44.9875 282.558 45.2375 282.258 45.7675V45.1275H281.358V49.9375H282.288ZM291.132 51.9475L294.262 45.1275H293.252L291.812 48.4475L290.312 45.1275H289.232L291.302 49.4075L290.102 51.9475H291.132Z" fill="#202425"/>
<path d="M63.652 117.192C65.476 117.192 66.928 116.076 66.928 113.988V108.492H65.272V113.868C65.272 114.984 64.66 115.572 63.652 115.572C62.668 115.572 62.044 114.984 62.044 113.868V108.492H60.388V113.988C60.388 116.076 61.84 117.192 63.652 117.192ZM72.9923 117H74.8403L73.0163 113.52C74.1323 113.196 74.8283 112.296 74.8283 111.108C74.8283 109.632 73.7723 108.492 72.1163 108.492H68.7923V117H70.4603V113.724H71.3243L72.9923 117ZM70.4603 112.296V109.932H71.8043C72.6443 109.932 73.1363 110.4 73.1363 111.12C73.1363 111.816 72.6443 112.296 71.8043 112.296H70.4603ZM81.7403 117V115.416H77.9483V108.492H76.2923V117H81.7403Z" fill="#202425"/>
<rect x="60" y="127.5" width="242" height="28" rx="4.5" fill="#232323" stroke="#3FCF8E"/>
<rect x="61" y="128.5" width="240" height="26" rx="3.5" fill="#ECEEF0" stroke="#D7DBDF"/>
<path d="M69.92 143.5C70.016 144.16 70.688 145.18 72.272 145.18C73.7 145.18 74.384 144.208 74.384 143.392C74.384 142.54 73.832 141.904 72.788 141.676L71.852 141.472C71.408 141.376 71.192 141.124 71.192 140.776C71.192 140.38 71.576 140.008 72.152 140.008C73.064 140.008 73.304 140.668 73.352 140.968L74.348 140.596C74.228 140.08 73.736 139.048 72.152 139.048C71.024 139.048 70.1 139.888 70.1 140.872C70.1 141.688 70.64 142.3 71.54 142.492L72.524 142.708C73.004 142.816 73.268 143.092 73.268 143.452C73.268 143.86 72.92 144.22 72.284 144.22C71.468 144.22 71.012 143.74 70.94 143.14L69.92 143.5ZM79.6312 144.304C79.6312 144.544 79.6552 144.868 79.6792 145H80.7592C80.7352 144.796 80.6992 144.388 80.6992 143.932V139.228H79.5712V142.708C79.5712 143.584 79.1152 144.184 78.2032 144.184C77.2552 144.184 76.8952 143.488 76.8952 142.696V139.228H75.7672V142.864C75.7672 144.172 76.5832 145.18 77.9272 145.18C78.5992 145.18 79.3192 144.904 79.6312 144.304ZM83.7401 147.28V144.22C84.0521 144.736 84.7241 145.156 85.6121 145.156C87.3041 145.156 88.3001 143.824 88.3001 142.108C88.3001 140.428 87.3761 139.096 85.6481 139.096C84.7121 139.096 84.0281 139.552 83.7161 140.128V139.228H82.6241V147.28H83.7401ZM87.1481 142.108C87.1481 143.296 86.4881 144.148 85.4441 144.148C84.4121 144.148 83.7281 143.296 83.7281 142.108C83.7281 140.956 84.4121 140.092 85.4441 140.092C86.5001 140.092 87.1481 140.956 87.1481 142.108ZM89.3773 143.452C89.3773 144.364 90.1333 145.18 91.3093 145.18C92.3413 145.18 92.9173 144.628 93.1693 144.22C93.1693 144.64 93.2053 144.856 93.2293 145H94.3333C94.3093 144.856 94.2613 144.556 94.2613 144.052V141.16C94.2613 140.032 93.5893 139.048 91.8613 139.048C90.6133 139.048 89.6173 139.816 89.4973 140.92L90.5773 141.172C90.6493 140.5 91.0933 140.008 91.8853 140.008C92.7613 140.008 93.1333 140.476 93.1333 141.04C93.1333 141.244 93.0373 141.424 92.6893 141.472L91.1293 141.7C90.1333 141.844 89.3773 142.42 89.3773 143.452ZM91.4653 144.232C90.8893 144.232 90.5293 143.824 90.5293 143.392C90.5293 142.876 90.8893 142.6 91.3693 142.528L93.1333 142.264V142.528C93.1333 143.788 92.3893 144.232 91.4653 144.232ZM97.1346 145V144.16C97.4946 144.784 98.1546 145.156 99.0066 145.156C100.723 145.156 101.695 143.8 101.695 142.084C101.695 140.404 100.795 139.06 99.0426 139.06C98.0826 139.06 97.4106 139.528 97.1346 140.044V136.312H96.0186V145H97.1346ZM100.543 142.084C100.543 143.332 99.8706 144.148 98.8386 144.148C97.8426 144.148 97.1226 143.332 97.1226 142.084C97.1226 140.836 97.8426 140.056 98.8386 140.056C99.8826 140.056 100.543 140.836 100.543 142.084ZM102.772 143.452C102.772 144.364 103.528 145.18 104.704 145.18C105.736 145.18 106.312 144.628 106.564 144.22C106.564 144.64 106.6 144.856 106.624 145H107.728C107.704 144.856 107.656 144.556 107.656 144.052V141.16C107.656 140.032 106.984 139.048 105.256 139.048C104.008 139.048 103.012 139.816 102.892 140.92L103.972 141.172C104.044 140.5 104.488 140.008 105.28 140.008C106.156 140.008 106.528 140.476 106.528 141.04C106.528 141.244 106.432 141.424 106.084 141.472L104.524 141.7C103.528 141.844 102.772 142.42 102.772 143.452ZM104.86 144.232C104.284 144.232 103.924 143.824 103.924 143.392C103.924 142.876 104.284 142.6 104.764 142.528L106.528 142.264V142.528C106.528 143.788 105.784 144.232 104.86 144.232ZM108.873 143.5C108.969 144.16 109.641 145.18 111.225 145.18C112.653 145.18 113.337 144.208 113.337 143.392C113.337 142.54 112.785 141.904 111.741 141.676L110.805 141.472C110.361 141.376 110.145 141.124 110.145 140.776C110.145 140.38 110.529 140.008 111.105 140.008C112.017 140.008 112.257 140.668 112.305 140.968L113.301 140.596C113.181 140.08 112.689 139.048 111.105 139.048C109.977 139.048 109.053 139.888 109.053 140.872C109.053 141.688 109.593 142.3 110.493 142.492L111.477 142.708C111.957 142.816 112.221 143.092 112.221 143.452C112.221 143.86 111.873 144.22 111.237 144.22C110.421 144.22 109.965 143.74 109.893 143.14L108.873 143.5ZM115.512 141.52C115.56 140.776 116.136 140.044 117.084 140.044C118.104 140.044 118.644 140.692 118.668 141.52H115.512ZM118.836 143.02C118.62 143.668 118.152 144.184 117.216 144.184C116.244 144.184 115.5 143.464 115.476 142.432H119.82C119.832 142.36 119.844 142.216 119.844 142.072C119.844 140.272 118.848 139.048 117.072 139.048C115.62 139.048 114.312 140.284 114.312 142.096C114.312 144.052 115.668 145.18 117.216 145.18C118.56 145.18 119.484 144.376 119.808 143.356L118.836 143.02ZM120.988 144.232C120.988 144.7 121.348 145.06 121.816 145.06C122.284 145.06 122.656 144.7 122.656 144.232C122.656 143.764 122.284 143.392 121.816 143.392C121.348 143.392 120.988 143.764 120.988 144.232ZM126.708 140.092C127.692 140.092 128.112 140.752 128.256 141.316L129.276 140.884C129.036 140.008 128.244 139.048 126.708 139.048C125.064 139.048 123.804 140.308 123.804 142.108C123.804 143.86 125.04 145.18 126.72 145.18C128.22 145.18 129.048 144.208 129.324 143.38L128.328 142.948C128.196 143.404 127.8 144.136 126.72 144.136C125.784 144.136 124.956 143.428 124.956 142.108C124.956 140.764 125.796 140.092 126.708 140.092ZM133.061 144.172C132.101 144.172 131.261 143.452 131.261 142.108C131.261 140.776 132.101 140.056 133.061 140.056C134.021 140.056 134.861 140.776 134.861 142.108C134.861 143.452 134.021 144.172 133.061 144.172ZM133.061 139.048C131.333 139.048 130.109 140.356 130.109 142.108C130.109 143.872 131.333 145.18 133.061 145.18C134.789 145.18 136.013 143.872 136.013 142.108C136.013 140.356 134.789 139.048 133.061 139.048ZM138.572 145V141.52C138.572 140.656 139.112 140.056 139.916 140.056C140.78 140.056 141.14 140.632 141.14 141.376V145H142.268V141.508C142.268 140.68 142.808 140.056 143.6 140.056C144.452 140.056 144.824 140.62 144.824 141.376V145H145.94V141.256C145.94 139.744 144.956 139.06 143.948 139.06C143.216 139.06 142.472 139.324 142.016 140.152C141.704 139.408 141.008 139.06 140.288 139.06C139.616 139.06 138.896 139.36 138.536 139.996V139.228H137.456V145H138.572Z" fill="#202425"/>
<rect x="256.5" y="105" width="45" height="15" rx="2" fill="#3FCF8E"/>
<path d="M267.31 115.938H268.37L265.55 108.847H264.42L261.6 115.938H262.65L263.4 113.957H266.54L267.31 115.938ZM264.96 109.867L266.19 113.047H263.75L264.96 109.867ZM270.164 113.157C270.164 112.427 270.544 111.837 271.284 111.837C272.124 111.837 272.404 112.377 272.404 113.047V115.938H273.344V112.887C273.344 111.817 272.774 110.987 271.624 110.987C271.064 110.987 270.494 111.217 270.144 111.817V111.127H269.224V115.938H270.164V113.157ZM275.399 113.517C275.399 112.527 275.959 111.827 276.819 111.827C277.679 111.827 278.199 112.507 278.199 113.497C278.199 114.487 277.669 115.237 276.809 115.237C275.909 115.237 275.399 114.507 275.399 113.517ZM278.209 115.287C278.209 115.577 278.239 115.827 278.259 115.938H279.169C279.159 115.857 279.119 115.507 279.119 115.047V108.697H278.189V111.807C278.029 111.417 277.569 110.997 276.719 110.997C275.359 110.997 274.439 112.157 274.439 113.517C274.439 114.947 275.309 116.068 276.719 116.068C277.469 116.068 277.979 115.667 278.209 115.207V115.287ZM283.388 111.077C283.338 111.067 283.208 111.047 283.078 111.047C282.588 111.047 281.988 111.227 281.638 111.967V111.127H280.718V115.938H281.658V113.527C281.658 112.467 282.188 112.047 282.978 112.047C283.108 112.047 283.248 112.057 283.388 112.077V111.077ZM284.951 113.037C284.991 112.417 285.471 111.807 286.261 111.807C287.111 111.807 287.561 112.347 287.581 113.037H284.951ZM287.721 114.287C287.541 114.827 287.151 115.257 286.371 115.257C285.561 115.257 284.941 114.657 284.921 113.797H288.541C288.551 113.737 288.561 113.617 288.561 113.497C288.561 111.997 287.731 110.977 286.251 110.977C285.041 110.977 283.951 112.007 283.951 113.517C283.951 115.147 285.081 116.088 286.371 116.088C287.491 116.088 288.261 115.417 288.531 114.567L287.721 114.287ZM292.422 111.127L291.172 114.747L290.092 111.127H289.062L290.642 115.938H291.632L292.882 112.277L294.162 115.938H295.132L296.692 111.127H295.702L294.642 114.747L293.392 111.127H292.422Z" fill="#202425"/>
</g>
<defs>
<clipPath id="clip0_1125_17671">
<rect width="360" height="210" fill="white" transform="translate(0.5)"/>
</clipPath>
</defs>
</svg>

<svg xmlns="http://www.w3.org/2000/svg" width="361" height="210" fill="none" viewBox="0 0 361 210"><g clip-path="url(#a)"><rect width="270" height="193" x="45" y="22.5" fill="#fff" stroke="#eceef0" rx="7.5"/><path fill="#202425" d="M66.736 44.064v-1.572h-7.044v1.572h2.688V51h1.668v-6.936zM69.284 51v-5.904h-1.596V51zm-1.788-7.836c0 .528.444.972.984.972a.98.98 0 0 0 .984-.972.983.983 0 1 0-1.968 0m5.465.168h-1.44v.828c0 .528-.288.936-.912.936h-.3v1.416h1.068v2.748c0 1.14.72 1.824 1.872 1.824.468 0 .756-.084.9-.144v-1.32c-.084.024-.3.048-.492.048-.456 0-.696-.168-.696-.684v-2.472h1.188v-1.416H72.96zM76.807 51v-8.688h-1.596V51zm2.873-3.624c.036-.54.492-1.164 1.32-1.164.912 0 1.296.576 1.32 1.164zm2.796 1.536c-.192.528-.6.9-1.344.9-.792 0-1.452-.564-1.488-1.344h4.224c0-.024.024-.264.024-.492 0-1.896-1.092-3.06-2.916-3.06-1.512 0-2.904 1.224-2.904 3.108 0 1.992 1.428 3.156 3.048 3.156 1.452 0 2.388-.852 2.688-1.872z"/><rect width="243" height="29" x="59.5" y="61" fill="#d7dbdf" rx="5"/><rect width="240" height="26" x="61" y="62.5" fill="#eceef0" stroke="#d7dbdf" rx="3.5"/><path fill="#202425" d="M76.004 72.424c-.192-.924-.96-2.112-2.88-2.112-1.572 0-2.808 1.2-2.808 2.532 0 1.272.864 2.064 2.076 2.328l1.212.264c.852.18 1.272.708 1.272 1.32 0 .744-.576 1.356-1.752 1.356-1.284 0-1.956-.876-2.04-1.824l-1.128.36c.156 1.212 1.128 2.532 3.18 2.532 1.812 0 2.94-1.2 2.94-2.52 0-1.188-.792-2.076-2.208-2.388l-1.272-.276c-.72-.156-1.092-.624-1.092-1.236 0-.792.684-1.416 1.644-1.416 1.188 0 1.704.84 1.8 1.452zm5.069 5.88c0 .24.024.564.048.696h1.08a10 10 0 0 1-.06-1.068v-4.704h-1.128v3.48c0 .876-.456 1.476-1.368 1.476-.948 0-1.308-.696-1.308-1.488v-3.468h-1.128v3.636c0 1.308.816 2.316 2.16 2.316.672 0 1.392-.276 1.704-.876m4.109 2.976v-3.06c.311.516.983.936 1.871.936 1.693 0 2.689-1.332 2.689-3.048 0-1.68-.925-3.012-2.653-3.012-.936 0-1.62.456-1.931 1.032v-.9h-1.093v8.052zm3.407-5.172c0 1.188-.66 2.04-1.704 2.04-1.032 0-1.716-.852-1.716-2.04 0-1.152.684-2.016 1.716-2.016 1.056 0 1.704.864 1.704 2.016m2.23 1.344c0 .912.756 1.728 1.932 1.728 1.032 0 1.608-.552 1.86-.96 0 .42.036.636.06.78h1.104a5.4 5.4 0 0 1-.072-.948V75.16c0-1.128-.672-2.112-2.4-2.112-1.248 0-2.244.768-2.364 1.872l1.08.252c.072-.672.516-1.164 1.308-1.164.876 0 1.248.468 1.248 1.032 0 .204-.096.384-.444.432l-1.56.228c-.996.144-1.752.72-1.752 1.752m2.088.78c-.576 0-.936-.408-.936-.84 0-.516.36-.792.84-.864l1.764-.264v.264c0 1.26-.744 1.704-1.668 1.704m6.065-6.828H97.94v.936c0 .504-.264.888-.888.888h-.312v1.02h1.104v3.168c0 1.044.624 1.644 1.608 1.644.384 0 .672-.072.768-.108v-.96c-.096.024-.3.048-.444.048-.588 0-.804-.264-.804-.792v-3h1.248v-1.02h-1.248zm3.87 7.596v-5.772h-1.116V79zm-1.368-7.956c0 .444.36.804.804.804a.81.81 0 1 0-.804-.804m4.799.36h-1.032v.936c0 .504-.264.888-.888.888h-.312v1.02h1.104v3.168c0 1.044.624 1.644 1.608 1.644.384 0 .672-.072.768-.108v-.96c-.096.024-.3.048-.444.048-.588 0-.804-.264-.804-.792v-3h1.248v-1.02h-1.248zM110.154 79v-8.688h-1.128V79zm2.651-3.48c.048-.744.624-1.476 1.572-1.476 1.02 0 1.56.648 1.584 1.476zm3.324 1.5c-.216.648-.684 1.164-1.62 1.164-.972 0-1.716-.72-1.74-1.752h4.344c.012-.072.024-.216.024-.36 0-1.8-.996-3.024-2.772-3.024-1.452 0-2.76 1.236-2.76 3.048 0 1.956 1.356 3.084 2.904 3.084 1.344 0 2.268-.804 2.592-1.824z"/><rect width="34" height="15" x="267.5" y="39" fill="#d7dbdf" rx="2"/><path fill="#202425" d="M279.444 49.938h1.06l-2.82-7.09h-1.13l-2.82 7.09h1.05l.75-1.98h3.14zm-2.35-6.07 1.23 3.18h-2.44zm5.194 6.07v-2.9c0-.72.45-1.22 1.12-1.22.72 0 1.02.48 1.02 1.1v3.02h.94v-2.91c0-.69.45-1.21 1.11-1.21.71 0 1.02.47 1.02 1.1v3.02h.93v-3.12c0-1.26-.82-1.83-1.66-1.83-.61 0-1.23.22-1.61.91-.26-.62-.84-.91-1.44-.91-.56 0-1.16.25-1.46.78v-.64h-.9v4.81zm8.844 2.01 3.13-6.82h-1.01l-1.44 3.32-1.5-3.32h-1.08l2.07 4.28-1.2 2.54zM63.652 117.192c1.824 0 3.276-1.116 3.276-3.204v-5.496h-1.656v5.376c0 1.116-.612 1.704-1.62 1.704-.984 0-1.608-.588-1.608-1.704v-5.376h-1.656v5.496c0 2.088 1.452 3.204 3.264 3.204m9.34-.192h1.848l-1.824-3.48c1.116-.324 1.812-1.224 1.812-2.412 0-1.476-1.056-2.616-2.712-2.616h-3.324V117h1.668v-3.276h.864zm-2.532-4.704v-2.364h1.344c.84 0 1.332.468 1.332 1.188 0 .696-.492 1.176-1.332 1.176zM81.74 117v-1.584h-3.792v-6.924h-1.656V117z"/><rect width="242" height="28" x="60" y="127.5" fill="#232323" stroke="#3fcf8e" rx="4.5"/><rect width="240" height="26" x="61" y="128.5" fill="#eceef0" stroke="#d7dbdf" rx="3.5"/><path fill="#202425" d="M69.92 143.5c.096.66.768 1.68 2.352 1.68 1.428 0 2.112-.972 2.112-1.788 0-.852-.552-1.488-1.596-1.716l-.936-.204c-.444-.096-.66-.348-.66-.696 0-.396.384-.768.96-.768.912 0 1.152.66 1.2.96l.996-.372c-.12-.516-.612-1.548-2.196-1.548-1.128 0-2.052.84-2.052 1.824 0 .816.54 1.428 1.44 1.62l.984.216c.48.108.744.384.744.744 0 .408-.348.768-.984.768-.816 0-1.272-.48-1.344-1.08zm9.711.804c0 .24.024.564.048.696h1.08a10 10 0 0 1-.06-1.068v-4.704h-1.128v3.48c0 .876-.456 1.476-1.368 1.476-.948 0-1.308-.696-1.308-1.488v-3.468h-1.128v3.636c0 1.308.816 2.316 2.16 2.316.672 0 1.392-.276 1.704-.876m4.11 2.976v-3.06c.311.516.983.936 1.871.936 1.692 0 2.688-1.332 2.688-3.048 0-1.68-.924-3.012-2.652-3.012-.936 0-1.62.456-1.932 1.032v-.9h-1.092v8.052zm3.407-5.172c0 1.188-.66 2.04-1.704 2.04-1.032 0-1.716-.852-1.716-2.04 0-1.152.684-2.016 1.716-2.016 1.056 0 1.704.864 1.704 2.016m2.23 1.344c0 .912.755 1.728 1.931 1.728 1.032 0 1.608-.552 1.86-.96 0 .42.036.636.06.78h1.104a5.4 5.4 0 0 1-.072-.948v-2.892c0-1.128-.672-2.112-2.4-2.112-1.248 0-2.244.768-2.364 1.872l1.08.252c.072-.672.516-1.164 1.308-1.164.876 0 1.248.468 1.248 1.032 0 .204-.096.384-.444.432l-1.56.228c-.996.144-1.752.72-1.752 1.752m2.087.78c-.576 0-.936-.408-.936-.84 0-.516.36-.792.84-.864l1.764-.264v.264c0 1.26-.744 1.704-1.668 1.704m5.67.768v-.84c.36.624 1.02.996 1.872.996 1.716 0 2.688-1.356 2.688-3.072 0-1.68-.9-3.024-2.652-3.024-.96 0-1.632.468-1.908.984v-3.732h-1.116V145zm3.408-2.916c0 1.248-.672 2.064-1.704 2.064-.996 0-1.716-.816-1.716-2.064s.72-2.028 1.716-2.028c1.044 0 1.704.78 1.704 2.028m2.229 1.368c0 .912.756 1.728 1.932 1.728 1.032 0 1.608-.552 1.86-.96 0 .42.036.636.06.78h1.104a5.4 5.4 0 0 1-.072-.948v-2.892c0-1.128-.672-2.112-2.4-2.112-1.248 0-2.244.768-2.364 1.872l1.08.252c.072-.672.516-1.164 1.308-1.164.876 0 1.248.468 1.248 1.032 0 .204-.096.384-.444.432l-1.56.228c-.996.144-1.752.72-1.752 1.752m2.088.78c-.576 0-.936-.408-.936-.84 0-.516.36-.792.84-.864l1.764-.264v.264c0 1.26-.744 1.704-1.668 1.704m4.013-.732c.096.66.768 1.68 2.352 1.68 1.428 0 2.112-.972 2.112-1.788 0-.852-.552-1.488-1.596-1.716l-.936-.204c-.444-.096-.66-.348-.66-.696 0-.396.384-.768.96-.768.912 0 1.152.66 1.2.96l.996-.372c-.12-.516-.612-1.548-2.196-1.548-1.128 0-2.052.84-2.052 1.824 0 .816.54 1.428 1.44 1.62l.984.216c.48.108.744.384.744.744 0 .408-.348.768-.984.768-.816 0-1.272-.48-1.344-1.08zm6.639-1.98c.048-.744.624-1.476 1.572-1.476 1.02 0 1.56.648 1.584 1.476zm3.324 1.5c-.216.648-.684 1.164-1.62 1.164-.972 0-1.716-.72-1.74-1.752h4.344c.012-.072.024-.216.024-.36 0-1.8-.996-3.024-2.772-3.024-1.452 0-2.76 1.236-2.76 3.048 0 1.956 1.356 3.084 2.904 3.084 1.344 0 2.268-.804 2.592-1.824zm2.152 1.212c0 .468.36.828.828.828s.84-.36.84-.828a.835.835 0 0 0-.84-.84.825.825 0 0 0-.828.84m5.72-4.14c.984 0 1.404.66 1.548 1.224l1.02-.432c-.24-.876-1.032-1.836-2.568-1.836-1.644 0-2.904 1.26-2.904 3.06 0 1.752 1.236 3.072 2.916 3.072 1.5 0 2.328-.972 2.604-1.8l-.996-.432c-.132.456-.528 1.188-1.608 1.188-.936 0-1.764-.708-1.764-2.028 0-1.344.84-2.016 1.752-2.016m6.353 4.08c-.96 0-1.8-.72-1.8-2.064 0-1.332.84-2.052 1.8-2.052s1.8.72 1.8 2.052c0 1.344-.84 2.064-1.8 2.064m0-5.124c-1.728 0-2.952 1.308-2.952 3.06 0 1.764 1.224 3.072 2.952 3.072s2.952-1.308 2.952-3.072c0-1.752-1.224-3.06-2.952-3.06m5.511 5.952v-3.48c0-.864.54-1.464 1.344-1.464.864 0 1.224.576 1.224 1.32V145h1.128v-3.492c0-.828.54-1.452 1.332-1.452.852 0 1.224.564 1.224 1.32V145h1.116v-3.744c0-1.512-.984-2.196-1.992-2.196-.732 0-1.476.264-1.932 1.092-.312-.744-1.008-1.092-1.728-1.092-.672 0-1.392.3-1.752.936v-.768h-1.08V145z"/><rect width="45" height="15" x="256.5" y="105" fill="#3fcf8e" rx="2"/><path fill="#202425" d="M267.31 115.938h1.06l-2.82-7.091h-1.13l-2.82 7.091h1.05l.75-1.981h3.14zm-2.35-6.071 1.23 3.18h-2.44zm5.204 3.29c0-.73.38-1.32 1.12-1.32.84 0 1.12.54 1.12 1.21v2.891h.94v-3.051c0-1.07-.57-1.9-1.72-1.9-.56 0-1.13.23-1.48.83v-.69h-.92v4.811h.94zm5.235.36c0-.99.56-1.69 1.42-1.69s1.38.68 1.38 1.67-.53 1.74-1.39 1.74c-.9 0-1.41-.73-1.41-1.72m2.81 1.77c0 .29.03.54.05.651h.91a8 8 0 0 1-.05-.891v-6.35h-.93v3.11c-.16-.39-.62-.81-1.47-.81-1.36 0-2.28 1.16-2.28 2.52 0 1.43.87 2.551 2.28 2.551.75 0 1.26-.401 1.49-.861zm5.179-4.21c-.05-.01-.18-.03-.31-.03-.49 0-1.09.18-1.44.92v-.84h-.92v4.811h.94v-2.411c0-1.06.53-1.48 1.32-1.48.13 0 .27.01.41.03zm1.563 1.96c.04-.62.52-1.23 1.31-1.23.85 0 1.3.54 1.32 1.23zm2.77 1.25c-.18.54-.57.97-1.35.97-.81 0-1.43-.6-1.45-1.46h3.62c.01-.06.02-.18.02-.3 0-1.5-.83-2.52-2.31-2.52-1.21 0-2.3 1.03-2.3 2.54 0 1.63 1.13 2.571 2.42 2.571 1.12 0 1.89-.671 2.16-1.521zm4.701-3.16-1.25 3.62-1.08-3.62h-1.03l1.58 4.811h.99l1.25-3.661 1.28 3.661h.97l1.56-4.811h-.99l-1.06 3.62-1.25-3.62z"/></g><defs><clipPath id="a"><path fill="#fff" d="M.5 0h360v210H.5z"/></clipPath></defs></svg>
